docs/img/all-services/9.svg

<svg width="80" height="80" viewBox="0 0 80 80" fill="none" xmlns="http://www.w3.org/2000/svg">
<g clip-path="url(#clip0_986:7150)">
<path d="M64.3866 40.9619C64.3763 38.6908 65.5074 36.683 67.2387 35.4704C65.5092 34.2729 64.3697 32.2832 64.3594 30.0223C64.3479 27.6079 65.6285 25.4945 67.5481 24.3151C66.0742 23.1653 65.1187 21.3829 65.1103 19.3715C65.1066 18.6447 65.433 17.5904 65.8666 16.5143C66.4455 15.0745 65.046 13.6443 63.5824 14.1681C62.6111 14.5156 61.6798 14.7712 61.0368 14.7742C58.8816 14.7845 56.976 13.7162 55.8261 12.0794C54.6883 13.7144 52.8008 14.7905 50.6553 14.8007C48.4863 14.8104 46.5679 13.7295 45.4198 12.074C44.2802 13.6903 42.4048 14.7536 40.2733 14.7627C38.0964 14.773 36.1726 13.6848 35.0257 12.0209C33.8849 13.628 32.0144 14.6841 29.8907 14.6938C27.5752 14.7047 25.5466 13.4721 24.4348 11.6251C23.2825 13.0981 21.4937 14.0521 19.4755 14.0612C18.7555 14.0642 17.2096 13.538 15.7278 12.9586C14.3569 12.4226 12.9665 13.6902 13.3904 15.0968C13.7664 16.3463 14.0862 17.5674 14.0892 18.1075C14.0989 20.2536 13.0324 22.1502 11.3987 23.2994C13.0433 24.4335 14.1267 26.321 14.1363 28.4665C14.146 30.6126 13.0803 32.5092 11.4466 33.6584C13.0912 34.7925 14.1746 36.68 14.1842 38.8255C14.1891 39.7771 13.609 41.261 12.9616 42.6168C12.5105 43.5642 13.4928 44.543 14.441 44.0899C15.8017 43.4398 17.2907 42.8543 18.2438 42.8501H18.2493L18.2546 42.8494C20.4019 42.8397 22.3009 43.9007 23.4526 45.5272C24.5898 43.8904 26.4786 42.8125 28.6259 42.8023C30.7767 42.7926 32.6775 43.856 33.8299 45.4861C35.1088 43.6385 37.3462 42.5014 39.8313 42.8035C42.6689 43.1479 44.9687 45.4415 45.3175 48.2721C45.6264 50.7814 44.4558 53.0458 42.5586 54.3165C44.2584 55.4415 45.3829 57.3641 45.3932 59.5525C45.4041 61.8254 44.2052 63.8181 42.4037 64.9383C42.6114 65.099 42.8124 65.267 42.9977 65.4519C44.3819 66.8174 45.1395 68.8161 44.7949 70.9797C44.4631 73.066 43.0595 74.8327 41.1781 75.6912L41.1787 75.7806C41.186 77.3147 39.9445 78.5642 38.4065 78.5714C36.869 78.5787 35.6168 77.3406 35.6095 75.806L35.6083 75.5245C35.0488 75.2302 34.5335 74.8635 34.0884 74.423C32.9349 73.2847 32.216 71.7078 32.2081 69.9604C32.1978 67.6874 33.3969 65.6947 35.1984 64.5746C33.71 63.426 32.7441 61.6333 32.735 59.6098C32.732 58.9887 33.1261 57.8964 33.639 56.7412C34.2518 55.3612 32.8567 53.9341 31.4742 54.5467C30.3479 55.0464 29.2877 55.43 28.6845 55.433C26.5379 55.4433 24.6383 54.3823 23.4872 52.7558C22.35 54.3926 20.4607 55.4705 18.3135 55.4802H18.3086H18.3031C16.1559 55.4904 14.2563 54.4295 13.1046 52.803C11.8245 54.6464 9.58999 55.7811 7.10788 55.4796C4.28848 55.137 1.99599 52.8694 1.62904 50.0581C1.30507 47.5827 2.42461 45.3418 4.26364 44.0494C2.61899 42.9159 1.53568 41.0284 1.52599 38.8823C1.5157 36.7368 2.58215 34.8396 4.2153 33.6904C2.57125 32.5569 1.48794 30.6694 1.47765 28.5233C1.46736 26.3778 2.53365 24.4806 4.1674 23.3314C2.52336 22.1979 1.43944 20.3104 1.42975 18.1643C1.41885 15.7203 2.80375 13.5978 4.83473 12.5393C3.50376 11.3877 2.65478 9.69526 2.6463 7.79929C2.63056 4.31186 5.4512 1.47092 8.94638 1.45521C8.96091 1.45521 8.97603 1.45706 8.99117 1.45706C9.0057 1.45706 9.02084 1.45523 9.03538 1.45462C11.1911 1.44496 13.0961 2.51315 14.2466 4.14932C15.3838 2.51497 17.2719 1.43893 19.4174 1.42866C21.696 1.41779 23.6925 2.6147 24.8158 4.41218C24.9763 4.20494 25.1445 4.00432 25.3292 3.81883C26.4707 2.66844 28.0511 1.95125 29.8017 1.9434C32.0156 1.93312 33.9661 3.06062 35.1057 4.77292C36.2484 3.18388 38.1061 2.14099 40.2152 2.13132C42.3849 2.12105 44.3026 3.20254 45.4507 4.85744C46.591 3.24121 48.4663 2.17846 50.5978 2.16879C52.753 2.15852 54.6586 3.22732 55.8091 4.86349C56.9463 3.22913 58.8338 2.1525 60.9792 2.14283C63.2579 2.13195 65.255 3.32827 66.3777 5.12576C66.5381 4.91852 66.707 4.71854 66.8917 4.53366C68.2608 3.15125 70.2646 2.39594 72.4342 2.73972C75.0617 3.15662 77.1889 5.2611 77.6297 7.87909C77.9936 10.0397 77.255 12.045 75.8834 13.4226C75.6206 13.6872 75.3324 13.9265 75.0272 14.1422C76.6742 15.2757 77.7594 17.165 77.7691 19.3129C77.7794 21.5146 76.6495 23.4438 74.943 24.5821C76.6192 25.7868 77.7181 27.7414 77.7284 29.96C77.7393 32.2312 76.6082 34.239 74.877 35.4517C76.6064 36.6498 77.7461 38.6388 77.7564 40.8997C77.7679 43.3588 76.4436 45.5133 74.4641 46.6782" stroke="#0098D0" stroke-width="2" stroke-miterlimit="10" stroke-linecap="round"/>
<path d="M75.1276 74.7295C72.2863 76.8579 68.3692 76.43 66.3789 73.773L52.1745 54.8113C50.1842 52.1544 50.874 48.2743 53.7153 46.1459C56.5566 44.0174 60.4743 44.446 62.4646 47.1029L76.669 66.0646C78.6593 68.7215 77.9688 72.6011 75.1276 74.7295Z" stroke="#0098D0" stroke-width="2" stroke-miterlimit="10" stroke-linecap="round"/>
<path d="M58.9922 63.9104C63.0973 62.4219 66.6992 59.7236 69.2816 56.2025" stroke="#0098D0" stroke-width="2" stroke-miterlimit="10" stroke-linecap="round"/>
</g>
<defs>
<clipPath id="clip0_986:7150">
<rect width="80" height="80" fill="white"/>
</clipPath>
</defs>
</svg>

<svg width="80" height="80" fill="none" xmlns="http://www.w3.org/2000/svg"><g clip-path="url(#clip0_986:7150)" stroke="#0098D0" stroke-width="2" stroke-miterlimit="10" stroke-linecap="round"><path d="M64.387 40.962a6.657 6.657 0 012.852-5.492 6.652 6.652 0 01-2.88-5.448 6.654 6.654 0 013.19-5.707 6.29 6.29 0 01-2.439-4.944c-.003-.726.323-1.78.757-2.857.578-1.44-.821-2.87-2.285-2.346-.97.348-1.902.603-2.545.606a6.319 6.319 0 01-5.21-2.695 6.323 6.323 0 01-5.172 2.722 6.325 6.325 0 01-5.235-2.727 6.317 6.317 0 01-5.147 2.689 6.325 6.325 0 01-5.247-2.742 6.32 6.32 0 01-5.135 2.673 6.324 6.324 0 01-5.456-3.069 6.317 6.317 0 01-4.96 2.436c-.72.003-2.265-.523-3.747-1.102-1.371-.536-2.761.731-2.338 2.138.376 1.25.696 2.47.7 3.01a6.302 6.302 0 01-2.691 5.192 6.3 6.3 0 01.048 10.36 6.3 6.3 0 012.737 5.166c.005.952-.575 2.436-1.222 3.792-.451.947.53 1.926 1.479 1.473 1.36-.65 2.85-1.236 3.803-1.24h.011a6.322 6.322 0 015.198 2.677 6.323 6.323 0 015.173-2.725 6.325 6.325 0 015.204 2.684 6.325 6.325 0 016.001-2.682c2.838.344 5.138 2.637 5.486 5.468a6.307 6.307 0 01-2.758 6.044 6.3 6.3 0 01-.155 10.622 6.306 6.306 0 012.391 6.041c-.332 2.087-1.735 3.854-3.617 4.712v.09a2.782 2.782 0 01-2.771 2.79 2.781 2.781 0 01-2.797-2.765l-.002-.281a6.29 6.29 0 01-3.4-5.564 6.302 6.302 0 012.99-5.386 6.294 6.294 0 01-2.463-4.965c-.003-.621.391-1.714.904-2.869.613-1.38-.782-2.807-2.165-2.194-1.126.5-2.186.883-2.79.886a6.319 6.319 0 01-5.197-2.677 6.322 6.322 0 01-5.173 2.724h-.011a6.321 6.321 0 01-5.198-2.677 6.327 6.327 0 01-5.997 2.677c-2.82-.343-5.112-2.61-5.479-5.422a6.3 6.3 0 012.635-6.009 6.298 6.298 0 01-.049-10.359 6.3 6.3 0 01-.048-10.359 6.3 6.3 0 01-2.737-5.167 6.31 6.31 0 013.405-5.625A6.288 6.288 0 012.646 7.8c-.015-3.487 2.805-6.328 6.3-6.344l.045.002.044-.002a6.323 6.323 0 015.212 2.694 6.324 6.324 0 0110.569.263c.16-.207.329-.408.513-.593a6.321 6.321 0 014.473-1.876 6.326 6.326 0 015.304 2.83 6.316 6.316 0 015.11-2.642 6.324 6.324 0 015.235 2.726 6.321 6.321 0 015.147-2.688 6.322 6.322 0 015.211 2.694 6.321 6.321 0 015.17-2.72 6.32 6.32 0 015.399 2.983c.16-.207.329-.407.514-.592a6.339 6.339 0 015.542-1.794c2.628.417 4.755 2.521 5.196 5.14a6.306 6.306 0 01-2.603 6.262 6.3 6.3 0 012.742 5.17c.01 2.203-1.12 4.132-2.826 5.27a6.648 6.648 0 01-.066 10.87 6.653 6.653 0 012.88 5.448 6.662 6.662 0 01-3.293 5.778"/><path d="M75.128 74.73c-2.842 2.128-6.759 1.7-8.75-.957L52.176 54.811c-1.99-2.657-1.301-6.537 1.54-8.665 2.842-2.129 6.76-1.7 8.75.957L76.67 66.065c1.99 2.657 1.3 6.536-1.541 8.665zM58.992 63.91a22.17 22.17 0 0010.29-7.707"/></g><defs><clipPath id="clip0_986:7150"><path fill="#fff" d="M0 0h80v80H0z"/></clipPath></defs></svg>
